icons/AdobePremiereColor.svg

<svg width="16" height="16" viewBox="0 0 16 16" fill="none" xmlns="http://www.w3.org/2000/svg">
<g clip-path="url(#clip0_2180_4609)">
<path d="M2.83333 0.200012H13.1667C14.7333 0.200012 16 1.46668 16 3.03335V12.9667C16 14.5333 14.7333 15.8 13.1667 15.8H2.83333C1.26667 15.8 0 14.5333 0 12.9667V3.03335C0 1.46668 1.26667 0.200012 2.83333 0.200012Z" fill="#00005B"/>
<path d="M3.80005 11.14V4.28002C3.80005 4.23335 3.82005 4.20669 3.86672 4.20669C3.98005 4.20669 4.08672 4.20669 4.24005 4.20002C4.40005 4.19335 4.56672 4.19335 4.74672 4.18669C4.92672 4.18002 5.12005 4.18002 5.32672 4.17335C5.53338 4.16669 5.73338 4.16669 5.93338 4.16669C6.48005 4.16669 6.93338 4.23335 7.30672 4.37335C7.64005 4.48669 7.94672 4.67335 8.20005 4.92002C8.41338 5.13335 8.58005 5.39335 8.68672 5.68002C8.78672 5.96002 8.84005 6.24669 8.84005 6.54669C8.84005 7.12002 8.70672 7.59335 8.44005 7.96669C8.17338 8.34002 7.80005 8.62002 7.36672 8.78002C6.91338 8.94669 6.41338 9.00669 5.86672 9.00669C5.70672 9.00669 5.60005 9.00669 5.53338 9.00002C5.46672 8.99335 5.37338 8.99335 5.24672 8.99335V11.1334C5.25338 11.18 5.22005 11.22 5.17338 11.2267C5.16672 11.2267 5.16005 11.2267 5.14672 11.2267H3.88005C3.82672 11.2267 3.80005 11.2 3.80005 11.14ZM5.25338 5.49335V7.73335C5.34672 7.74002 5.43338 7.74669 5.51338 7.74669H5.86672C6.12672 7.74669 6.38672 7.70669 6.63338 7.62669C6.84672 7.56669 7.03338 7.44002 7.18005 7.27335C7.32005 7.10669 7.38672 6.88002 7.38672 6.58669C7.39338 6.38002 7.34005 6.17335 7.23338 5.99335C7.12005 5.82002 6.96005 5.68669 6.76672 5.61335C6.52005 5.51335 6.25338 5.47335 5.98005 5.48002C5.80672 5.48002 5.65338 5.48002 5.52672 5.48669C5.39338 5.48002 5.30005 5.48669 5.25338 5.49335Z" fill="#9999FF"/>
<path d="M9.77327 5.87999H10.9399C11.0066 5.87999 11.0599 5.92666 11.0799 5.98666C11.0999 6.03999 11.1133 6.09332 11.1199 6.15332C11.1333 6.21999 11.1466 6.29332 11.1533 6.35999C11.1599 6.43332 11.1666 6.51332 11.1666 6.59999C11.3666 6.36666 11.6066 6.17332 11.8799 6.02666C12.1866 5.85332 12.5399 5.76666 12.8933 5.76666C12.9399 5.75999 12.9799 5.79332 12.9866 5.83999C12.9866 5.84666 12.9866 5.85332 12.9866 5.86666V7.16666C12.9866 7.21999 12.9533 7.23999 12.8799 7.23999C12.6399 7.23332 12.3933 7.25332 12.1599 7.30666C11.9666 7.34666 11.7799 7.40666 11.5999 7.48666C11.4733 7.54666 11.3533 7.62666 11.2599 7.73332V11.1333C11.2599 11.2 11.2333 11.2267 11.1733 11.2267H9.85993C9.8066 11.2333 9.75993 11.2 9.75327 11.1467C9.75327 11.14 9.75327 11.1267 9.75327 11.12V7.42666C9.75327 7.26666 9.75327 7.09999 9.7466 6.92666C9.73993 6.75332 9.73993 6.57999 9.73327 6.40666C9.73327 6.25332 9.71993 6.10666 9.7066 5.95332C9.69993 5.91999 9.71993 5.88666 9.75327 5.87999C9.75327 5.87332 9.7666 5.87332 9.77327 5.87999Z" fill="#9999FF"/>
</g>
<defs>
<clipPath id="clip0_2180_4609">
<rect width="16" height="16" fill="white"/>
</clipPath>
</defs>
</svg>

<svg width="16" height="16" fill="none" xmlns="http://www.w3.org/2000/svg"><g clip-path="url(#a)"><path d="M2.833.2h10.334A2.831 2.831 0 0 1 16 3.033v9.934a2.831 2.831 0 0 1-2.833 2.833H2.833A2.831 2.831 0 0 1 0 12.967V3.033A2.831 2.831 0 0 1 2.833.2z" fill="#00005B"/><path d="M3.8 11.14V4.28c0-.047.02-.073.067-.073.113 0 .22 0 .373-.007.16-.007.327-.007.507-.013.18-.007.373-.007.58-.014.206-.006.406-.006.606-.006.547 0 1 .066 1.374.206.333.114.64.3.893.547.213.213.38.473.487.76.1.28.153.567.153.867 0 .573-.133 1.046-.4 1.42-.267.373-.64.653-1.073.813-.454.167-.954.227-1.5.227-.16 0-.267 0-.334-.007-.066-.007-.16-.007-.286-.007v2.14c.006.047-.027.087-.074.094H3.88c-.053 0-.08-.027-.08-.087zm1.453-5.647v2.24c.094.007.18.014.26.014h.354c.26 0 .52-.04.766-.12.214-.06.4-.187.547-.354.14-.166.207-.393.207-.686a1.097 1.097 0 0 0-.154-.594.967.967 0 0 0-.466-.38c-.247-.1-.514-.14-.787-.133-.173 0-.327 0-.453.007-.134-.007-.227 0-.274.006zM9.773 5.88h1.167a.15.15 0 0 1 .14.107c.02.053.033.106.04.166a2.21 2.21 0 0 1 .047.447c.2-.233.44-.427.713-.573.307-.174.66-.26 1.013-.26.047-.007.087.026.094.073v1.327c0 .053-.034.073-.107.073a2.899 2.899 0 0 0-.72.067c-.193.04-.38.1-.56.18-.127.06-.247.14-.34.246v3.4c0 .067-.027.094-.087.094H9.86c-.053.006-.1-.027-.107-.08v-3.72c0-.16 0-.327-.006-.5-.007-.174-.007-.347-.014-.52 0-.154-.013-.3-.026-.454a.061.061 0 0 1 .046-.073c0-.007.014-.007.02 0z" fill="#99F"/></g><defs><clipPath id="a"><path fill="#fff" d="M0 0h16v16H0z"/></clipPath></defs></svg>
